X:92
T:I wou'd if I cou'd. THO5.092
T:I Would if I Could
M:6/8
L:1/8
B:Thompson's Complete Collection of 200 Favourite Dances Vol.5
F:https://www.libraryofdance.org/manuals/1780c-Thompson-Compleat-5.pdf
Z:vmp. Peter Dunk 2024
Q:3/8=110
K:D
A2A ABc|d2d def|gfg Bcd|efd cBA|
A2A ABc|d2d def|gfg ABc|d3 D3:|
|:f2g afd|g2a bge|f2g afd|efd cBA|
f2g afd|g2a bge|f2g afd|Bec d3:|
W:
W:Cast off one Couple, the Gent cast off and the Lady cast up at the same time ./.
W:foot it 3 & 3 abreast, up and down the Gent cast up and the Lady cast off ./:
W:hands six round :/.
W:Right and Left :/:

